client/public/game_modes/bouncing_ball/frame13.svg

<svg xmlns="http://www.w3.org/2000/svg" width="437" height="483" fill="none"><path fill="#EDEDED" d="M359 360h20v19h-20v-19Zm-20-20h20v20h-20v-20Zm-39-20h20v20h-20v-20Zm-20-20h20v20h-20v-20Zm20 0h20v20h-20v-20Zm20 40h19v20h-19v-20Zm0-20h19v20h-19v-20Zm-20 20h20v20h-20v-20Zm59 0h20v20h-20v-20Zm-20 20h20v19h-20v-19Z"/><path stroke="#EDEDED" stroke-width="5" d="M359 360h20m-20 0v19m0-19v-20m0 20h-20m40 0v19h-20m20-19v-20h-20m0 39h-20v-19m0-20h20m-20 0v20m0-20h-19m19 0v-20h-19m19 40h-19m-20-40h20m-20 0v20m0-20v-20m0 20h-20v-20h20m20 20v20m0-20v-20h-20m20 40h-20m20 0v20m-20-20v20h20"/><path fill="#949494" d="M219 440h20v20h-20v-20Zm-21 0h21v20h-21v-20Zm41 0h40v20h-40v-20Zm40 0h20v20h-20v-20Z"/><path fill="#949494" d="M239 440h20v20h-20v-20Zm-61 0h20v20h-20v-20Zm-20 0h20v20h-20v-20ZM58 380h20v21H58v-21Zm-20 0h20v21H38v-21Zm-20 0h20v21H18v-21Zm0-21h20v21H18v-21Zm0-20h20v20H18v-20Zm120 82h20v19h-20v-19Zm0 19h20v20h-20v-20Zm-20 0h20v20h-20v-20Zm-20 0h20v20H98v-20Zm0-19h20v19H98v-19Zm-20 0h20v19H78v-19Zm-20 0h20v19H58v-19Zm60 0h20v19h-20v-19Zm-60-20h20v20H58v-20Zm20 0h20v20H78v-20Zm-40 0h20v20H38v-20Zm60 0h20v20H98v-20Zm-60-81h21v19H38v-19Zm281 120h20v20h-20v-20Zm-20 0h20v20h-20v-20Z"/><path stroke="#949494" stroke-width="5" d="M219 440h20m-20 0v20m0-20h-21m41 0v20m0-20h40m-40 0h20v20h-20m0 0h-20m20 0h40m-60 0h-21m0-20v20m0-20h-20m20 20h-20m101-20v20m0-20h20m-20 20h20m0-20v20m0-20h20m-20 20h20m-141-20v20m0-20h-20m20 20h-20m0-20v20m0-20v-19h-20m20 19h-20m20 20h-20m-80-80h20v21m-20-21v21m0-21H38m40 21H58m20 0v20m0-20h20m-40 0H38m20 0v20m-20-41v21m0-21H18m20 0v-21m0 42H18v-21m20 21v20h20m-40-41v-21m0 0h20m-20 0v-20h20m0 20v-20m0 0h21v-19H38v19Zm100 82v19m0-19h-20m20 19v20m0-20h-20m20 20h-20m0-20v20m0-20H98m20 0v-19m0 39H98v-20m0 0v-19m0 19H78m20-19h20m-20 0H78m20 0v-20m20 20v-20H98m-20 20v19m0-19H58m20 19H58v-19m261 19h20v20h-20m0-20v20"/><path fill="#D9D9D9" d="M98 340h20v20H98v-20Zm20 0h20v20h-20v-20Zm-20-20h20v20H98v-20Zm-59 40h20v20H39v-20Zm0-20h20v20H39v-20Zm79 40h20v20h-20v-20Zm20 0h20v20h-20v-20Zm-20 20h20v20h-20v-20Zm-40-20h20v20H78v-20Zm20 0h20v20H98v-20Zm-20-20h20v20H78v-20Zm-19 0h19v20H59v-20Zm0-20h19v20H59v-20Zm0-20h19v20H59v-20Zm19 0h20v20H78v-20Zm-19-20h19v20H59v-20Zm19 0h20v20H78v-20Zm0 40h20v20H78v-20Zm20 20h20v20H98v-20Zm40 40h20v20h-20v-20Zm40 0h20v20h-20v-20Zm20 0h21v20h-21v-20Zm-40 0h20v20h-20v-20Zm61 0h20v20h-20v-20Zm20 0h20v20h-20v-20Zm20 0h20v20h-20v-20Zm-61 20h21v20h-21v-20Zm-20 0h20v20h-20v-20Zm-20 0h20v20h-20v-20Zm221-20h20v20h-20v-20Zm-20 0h20v20h-20v-20Zm40-20h20v20h-20v-20Zm0-21h20v21h-20v-21Zm0-20h20v20h-20v-20Zm-20 41h20v20h-20v-20Zm0-21h20v21h-20v-21Zm0-20h20v20h-20v-20Zm-20-20h20v20h-20v-20Zm-19 0h19v20h-19v-20Zm19-19h20v19h-20v-19Zm-19 0h19v19h-19v-19Zm-20 0h20v19h-20v-19Zm39 80h20v20h-20v-20Zm-60 20h20v20h-20v-20Zm-20 0h20v20h-20v-20Zm40 0h20v20h-20v-20Zm-141-20h20v20h-20v-20Zm20 0h21v20h-21v-20Zm-40 0h20v20h-20v-20Zm61 0h20v20h-20v-20Zm20 0h20v20h-20v-20Zm20 0h20v20h-20v-20Zm40 0h20v20h-20v-20Zm-20 0h20v20h-20v-20Zm40 0h20v20h-20v-20Zm-141-20h20v20h-20v-20Zm20 0h21v20h-21v-20Zm-40 0h20v20h-20v-20Zm61 0h20v20h-20v-20Zm20 0h20v20h-20v-20Zm20 0h20v20h-20v-20Zm40 0h20v20h-20v-20Zm-20 0h20v20h-20v-20Zm40 0h20v20h-20v-20Zm-141-20h20v20h-20v-20Zm20 0h21v20h-21v-20Zm-40 0h20v20h-20v-20Zm61 0h20v20h-20v-20Zm20 0h20v20h-20v-20Zm40 0h20v20h-20v-20Zm0-20h20v20h-20v-20Zm-20-20h20v20h-20v-20Zm-40 0h20v20h-20v-20Zm20 0h20v20h-20v-20Zm20 40h20v20h-20v-20Zm-40-20h20v20h-20v-20Zm20 0h20v20h-20v-20Zm20 0h20v20h-20v-20Zm80 80h20v20h-20v-20Zm0-20h20v20h-20v-20Zm-201-20h20v20h-20v-20Zm0-20h20v20h-20v-20Zm40-20h20v20h-20v-20Zm20 0h21v20h-21v-20Zm-40 0h20v20h-20v-20Zm-20 0h20v20h-20v-20Zm40-20h20v20h-20v-20Zm20 0h21v20h-21v-20Zm-40 0h20v20h-20v-20Zm-20 0h20v20h-20v-20Zm-40 0h20v20H98v-20Zm20 0h20v20h-20v-20Zm-20-20h20v20H98v-20Zm20 0h20v20h-20v-20Zm182 0h20v20h-20v-20Zm20 0h20v20h-20v-20Zm-61 0h20v20h-20v-20Zm20 0h21v20h-21v-20Zm-81 0h21v20h-21v-20Zm21 0h20v20h-20v-20Zm20 0h20v20h-20v-20Zm-61 0h20v20h-20v-20Zm-40 0h20v20h-20v-20Zm20 0h20v20h-20v-20Zm-40 80h20v20h-20v-20Zm0-40h20v20h-20v-20Zm261-1h20v20h-20v-20ZM259 420h20v20h-20v-20Zm-40 0h20v20h-20v-20Zm20 0h20v20h-20v-20Zm120 0h20v20h-20v-20Zm-20 0h20v20h-20v-20Zm-60 0h20v20h-20v-20Zm20 0h20v20h-20v-20Zm20 0h20v20h-20v-20Z"/><path stroke="#D9D9D9" stroke-width="5" d="M98 340h20m-20 0v20m0-20v-20m0 20H78m40 0v20m0-20h20m-20 0v-20m0 40H98m20 0h20m-20 0v20m-20-20H78m20 0v20m40-40v20m0-20h20m-20 0v-20m0 40h20m-20 0v20m-40-60h20m-20 0H78m20 0v-20m20 20v-20m0 20h20m-99 40h20m-20 0v20h20m-20-20v-20h20m0 20v20m0-20v-20m0 20h19m-19 20h19m-19-40h19m-19 0v-20m59 60h20m-20 0v20m0-20H98m40 0v20m0-20h20m-20 20h-20m20 0h20m-20 0v20m-20-20v20h20m-20-20H98m60-20v20m0-20h20m-20 0v-20m0 40v20m0-20h20m-40 20h20m-80-40h20m-20 0v20h20m-20-20v-20m20 20v20m-20-40v-20m0 0v-20m-19 0h19m-19 0v-20h19m0 20v-20m0 0h20m0 0h20m-20 0v-20h20m40 140h20m-20 0v20h20m0-40h20m-20 0v20m0-20v-20m20 20v20m0-20h21m-21 0v-20m0 40h-20m20 0h21m-21 0v20m-20-20v20m41-40v20m0-20h20m-20 0v-20m0 40h20m-20 0v20m20-40v20m0-20h20m-20 0v-20m0 40h20m-20 0v20m20-40v20m0-20h20m-20 0v-20m0 40h20m-20 0v20m20-40v20m0-20h20m-20 0v-20m0 40h20m-20 0v20m-60 0h-21m21 0h20m-41 0h-20m201-40h20m-20 0v20m0-20h-20m20 0v-20m20 20v20h-20m20-20h20v-20m-20 20v-20m-20 40h-20m20 0v20h-20m0-40v20m0-20v-20m0 20h-20m20 20h-20m20 0v20m40-60h20m-20 0v-21m0 21h-20m40 0v-21m-20 0h20m-20 0v-20m0 20h-20m40 0v-20h-20m0 0h-20m20 0v-20h-20m0 61v-21m0 21h-20m20-21v-20m0 0v-20m0 20h-20m0-20h20m-20 0v20m0-20h-19m19 0v-19m20 19v-19h-20m0 39h-19v-20m0 0v-19m0 19h-20v-19m39 0h-19m0 0h-20m20 0v-20h-20m0 20v-20m0 20h-20m59 80h-20m-40 20h20m-20 0v20m0-20v-20m20 20v20m0-20h20m-20 0v-20m0 40h-20m20 0h20m-20 0v20m-20-20v20m40-40v20m0-20v-20m0 40v20m-161-60h20m-20 0v-20m20 20h21m-21 0v-20m21 20h20m-20 0v-20m20 20h20m-20 0v-20m20 20h20m-20 0v-20m20 20h20m-20 0v-20m20 20h20m-20 0v-20m20 20h20m-20 0v-20m20 20v-20h-20m-141 0h20m-20 0h-20m20 0v-20m20 20h21m-21 0v-20m21 20h20m-20 0v-20m-61 20v-20m81 20h20m-20 0v-20m20 20h20m-20 0v-20m20 20h20m-20 0v-20m20 20h20m-20 0v-20m-121 0h20m-20 0h-20m20 0v-20m20 20h21m-21 0v-20m21 20h20m-20 0v-20m-61 20v-20m81 20h20m-20 0v-20m20 20h20m-20 0v-20m20 20h20m-20 0v-20m20 20v-20h-20m0 0v-20m0 20h-20m0-20h20m-20 0v20m0-20h-20m20 0v-20m20 20v-20m0 20h21m-41 20h-20m-20-20h20m-20 0v20m0-20h-21m21 0v-20m20 20v20m0-20v-20m0 40h-20m0 0h-21m-20 0h20m-20 0h-20m20 0v-20m20 20v-20m-40 20h-20m20 0v-20m-20 20v-20m40 0h20m-20 0h-20m20 0v-20m20 20v-20m-40 20h-20m20 0v-20m-20 20h-20m20 0v-20m-20 20v-20m0 0h20m0 0h20m142 0h20m-20 0v20m0-20h-21m-20 0h20m-20 0h-20m-41 0h21m-21 0h-20m41 0h20m-61 0h-20m121 160h-20m20 0h20m-40 0h-20m120 0h-20m0 0h-20m-20 0h20"/></svg>

<svg width="437" height="483" viewBox="0 0 437 483" fill="none" xmlns="http://www.w3.org/2000/svg">
<path d="M359 360H379V379H359V360Z" fill="#EDEDED"/>
<path d="M339 340H359V360H339V340Z" fill="#EDEDED"/>
<path d="M300 320H320V340H300V320Z" fill="#EDEDED"/>
<path d="M280 300H300V320H280V300Z" fill="#EDEDED"/>
<path d="M300 300H320V320H300V300Z" fill="#EDEDED"/>
<path d="M320 340H339V360H320V340Z" fill="#EDEDED"/>
<path d="M320 320H339V340H320V320Z" fill="#EDEDED"/>
<path d="M300 340H320V360H300V340Z" fill="#EDEDED"/>
<path d="M359 340H379V360H359V340Z" fill="#EDEDED"/>
<path d="M339 360H359V379H339V360Z" fill="#EDEDED"/>
<path d="M359 360H379M359 360V379M359 360V340M359 360H339M379 360V379H359M379 360V340H359M359 379H339V360M339 340H359M339 340V360M339 340H320M339 340V320H320M339 360H320M300 320H320M300 320V340M300 320V300M300 320H280V300H300M320 320V340M320 320V300H300M320 340H300M320 340V360M300 340V360H320" stroke="#EDEDED" stroke-width="5"/>
<path d="M219 440H239V460H219V440Z" fill="#949494"/>
<path d="M198 440H219V460H198V440Z" fill="#949494"/>
<path d="M239 440H279V460H239V440Z" fill="#949494"/>
<path d="M279 440H299V460H279V440Z" fill="#949494"/>
<path d="M239 440H259V460H239V440Z" fill="#949494"/>
<path d="M178 440H198V460H178V440Z" fill="#949494"/>
<path d="M158 440H178V460H158V440Z" fill="#949494"/>
<path d="M58 380H78V401H58V380Z" fill="#949494"/>
<path d="M38 380H58V401H38V380Z" fill="#949494"/>
<path d="M18 380H38V401H18V380Z" fill="#949494"/>
<path d="M18 359H38V380H18V359Z" fill="#949494"/>
<path d="M18 339H38V359H18V339Z" fill="#949494"/>
<path d="M138 421H158V440H138V421Z" fill="#949494"/>
<path d="M138 440H158V460H138V440Z" fill="#949494"/>
<path d="M118 440H138V460H118V440Z" fill="#949494"/>
<path d="M98 440H118V460H98V440Z" fill="#949494"/>
<path d="M98 421H118V440H98V421Z" fill="#949494"/>
<path d="M78 421H98V440H78V421Z" fill="#949494"/>
<path d="M58 421H78V440H58V421Z" fill="#949494"/>
<path d="M118 421H138V440H118V421Z" fill="#949494"/>
<path d="M58 401H78V421H58V401Z" fill="#949494"/>
<path d="M78 401H98V421H78V401Z" fill="#949494"/>
<path d="M38 401H58V421H38V401Z" fill="#949494"/>
<path d="M98 401H118V421H98V401Z" fill="#949494"/>
<path d="M38 320H59V339H38V320Z" fill="#949494"/>
<path d="M319 440H339V460H319V440Z" fill="#949494"/>
<path d="M299 440H319V460H299V440Z" fill="#949494"/>
<path d="M219 440H239M219 440V460M219 440H198M239 440V460M239 440H279M239 440H259V460H239M239 460H219M239 460H279M219 460H198M198 440V460M198 440H178M198 460H178M279 440V460M279 440H299M279 460H299M299 440V460M299 440H319M299 460H319M178 440V460M178 440H158M178 460H158M158 440V460M158 440V421H138M158 440H138M158 460H138M58 380H78V401M58 380V401M58 380H38M78 401H58M78 401V421M78 401H98M58 401H38M58 401V421M38 380V401M38 380H18M38 380V359M38 401H18V380M38 401V421H58M18 380V359M18 359H38M18 359V339H38M38 359V339M38 339H59V320H38V339ZM138 421V440M138 421H118M138 440V460M138 440H118M138 460H118M118 440V460M118 440H98M118 440V421M118 460H98V440M98 440V421M98 440H78M98 421H118M98 421H78M98 421V401M118 421V401H98M78 421V440M78 421H58M78 440H58V421M319 440H339V460H319M319 440V460" stroke="#949494" stroke-width="5"/>
<path d="M98 340H118V360H98V340Z" fill="#D9D9D9"/>
<path d="M118 340H138V360H118V340Z" fill="#D9D9D9"/>
<path d="M98 320H118V340H98V320Z" fill="#D9D9D9"/>
<path d="M39 360H59V380H39V360Z" fill="#D9D9D9"/>
<path d="M39 340H59V360H39V340Z" fill="#D9D9D9"/>
<path d="M118 380H138V400H118V380Z" fill="#D9D9D9"/>
<path d="M138 380H158V400H138V380Z" fill="#D9D9D9"/>
<path d="M118 400H138V420H118V400Z" fill="#D9D9D9"/>
<path d="M78 380H98V400H78V380Z" fill="#D9D9D9"/>
<path d="M98 380H118V400H98V380Z" fill="#D9D9D9"/>
<path d="M78 360H98V380H78V360Z" fill="#D9D9D9"/>
<path d="M59 360H78V380H59V360Z" fill="#D9D9D9"/>
<path d="M59 340H78V360H59V340Z" fill="#D9D9D9"/>
<path d="M59 320H78V340H59V320Z" fill="#D9D9D9"/>
<path d="M78 320H98V340H78V320Z" fill="#D9D9D9"/>
<path d="M59 300H78V320H59V300Z" fill="#D9D9D9"/>
<path d="M78 300H98V320H78V300Z" fill="#D9D9D9"/>
<path d="M78 340H98V360H78V340Z" fill="#D9D9D9"/>
<path d="M98 360H118V380H98V360Z" fill="#D9D9D9"/>
<path d="M138 400H158V420H138V400Z" fill="#D9D9D9"/>
<path d="M178 400H198V420H178V400Z" fill="#D9D9D9"/>
<path d="M198 400H219V420H198V400Z" fill="#D9D9D9"/>
<path d="M158 400H178V420H158V400Z" fill="#D9D9D9"/>
<path d="M219 400H239V420H219V400Z" fill="#D9D9D9"/>
<path d="M239 400H259V420H239V400Z" fill="#D9D9D9"/>
<path d="M259 400H279V420H259V400Z" fill="#D9D9D9"/>
<path d="M198 420H219V440H198V420Z" fill="#D9D9D9"/>
<path d="M178 420H198V440H178V420Z" fill="#D9D9D9"/>
<path d="M158 420H178V440H158V420Z" fill="#D9D9D9"/>
<path d="M379 400H399V420H379V400Z" fill="#D9D9D9"/>
<path d="M359 400H379V420H359V400Z" fill="#D9D9D9"/>
<path d="M399 380H419V400H399V380Z" fill="#D9D9D9"/>
<path d="M399 359H419V380H399V359Z" fill="#D9D9D9"/>
<path d="M399 339H419V359H399V339Z" fill="#D9D9D9"/>
<path d="M379 380H399V400H379V380Z" fill="#D9D9D9"/>
<path d="M379 359H399V380H379V359Z" fill="#D9D9D9"/>
<path d="M379 339H399V359H379V339Z" fill="#D9D9D9"/>
<path d="M359 319H379V339H359V319Z" fill="#D9D9D9"/>
<path d="M340 319H359V339H340V319Z" fill="#D9D9D9"/>
<path d="M359 300H379V319H359V300Z" fill="#D9D9D9"/>
<path d="M340 300H359V319H340V300Z" fill="#D9D9D9"/>
<path d="M320 300H340V319H320V300Z" fill="#D9D9D9"/>
<path d="M359 380H379V400H359V380Z" fill="#D9D9D9"/>
<path d="M299 400H319V420H299V400Z" fill="#D9D9D9"/>
<path d="M279 400H299V420H279V400Z" fill="#D9D9D9"/>
<path d="M319 400H339V420H319V400Z" fill="#D9D9D9"/>
<path d="M178 380H198V400H178V380Z" fill="#D9D9D9"/>
<path d="M198 380H219V400H198V380Z" fill="#D9D9D9"/>
<path d="M158 380H178V400H158V380Z" fill="#D9D9D9"/>
<path d="M219 380H239V400H219V380Z" fill="#D9D9D9"/>
<path d="M239 380H259V400H239V380Z" fill="#D9D9D9"/>
<path d="M259 380H279V400H259V380Z" fill="#D9D9D9"/>
<path d="M299 380H319V400H299V380Z" fill="#D9D9D9"/>
<path d="M279 380H299V400H279V380Z" fill="#D9D9D9"/>
<path d="M319 380H339V400H319V380Z" fill="#D9D9D9"/>
<path d="M178 360H198V380H178V360Z" fill="#D9D9D9"/>
<path d="M198 360H219V380H198V360Z" fill="#D9D9D9"/>
<path d="M158 360H178V380H158V360Z" fill="#D9D9D9"/>
<path d="M219 360H239V380H219V360Z" fill="#D9D9D9"/>
<path d="M239 360H259V380H239V360Z" fill="#D9D9D9"/>
<path d="M259 360H279V380H259V360Z" fill="#D9D9D9"/>
<path d="M299 360H319V380H299V360Z" fill="#D9D9D9"/>
<path d="M279 360H299V380H279V360Z" fill="#D9D9D9"/>
<path d="M319 360H339V380H319V360Z" fill="#D9D9D9"/>
<path d="M178 340H198V360H178V340Z" fill="#D9D9D9"/>
<path d="M198 340H219V360H198V340Z" fill="#D9D9D9"/>
<path d="M158 340H178V360H158V340Z" fill="#D9D9D9"/>
<path d="M219 340H239V360H219V340Z" fill="#D9D9D9"/>
<path d="M239 340H259V360H239V340Z" fill="#D9D9D9"/>
<path d="M279 340H299V360H279V340Z" fill="#D9D9D9"/>
<path d="M279 320H299V340H279V320Z" fill="#D9D9D9"/>
<path d="M259 300H279V320H259V300Z" fill="#D9D9D9"/>
<path d="M219 300H239V320H219V300Z" fill="#D9D9D9"/>
<path d="M239 300H259V320H239V300Z" fill="#D9D9D9"/>
<path d="M259 340H279V360H259V340Z" fill="#D9D9D9"/>
<path d="M219 320H239V340H219V320Z" fill="#D9D9D9"/>
<path d="M239 320H259V340H239V320Z" fill="#D9D9D9"/>
<path d="M259 320H279V340H259V320Z" fill="#D9D9D9"/>
<path d="M339 400H359V420H339V400Z" fill="#D9D9D9"/>
<path d="M339 380H359V400H339V380Z" fill="#D9D9D9"/>
<path d="M138 360H158V380H138V360Z" fill="#D9D9D9"/>
<path d="M138 340H158V360H138V340Z" fill="#D9D9D9"/>
<path d="M178 320H198V340H178V320Z" fill="#D9D9D9"/>
<path d="M198 320H219V340H198V320Z" fill="#D9D9D9"/>
<path d="M158 320H178V340H158V320Z" fill="#D9D9D9"/>
<path d="M138 320H158V340H138V320Z" fill="#D9D9D9"/>
<path d="M178 300H198V320H178V300Z" fill="#D9D9D9"/>
<path d="M198 300H219V320H198V300Z" fill="#D9D9D9"/>
<path d="M158 300H178V320H158V300Z" fill="#D9D9D9"/>
<path d="M138 300H158V320H138V300Z" fill="#D9D9D9"/>
<path d="M98 300H118V320H98V300Z" fill="#D9D9D9"/>
<path d="M118 300H138V320H118V300Z" fill="#D9D9D9"/>
<path d="M98 280H118V300H98V280Z" fill="#D9D9D9"/>
<path d="M118 280H138V300H118V280Z" fill="#D9D9D9"/>
<path d="M300 280H320V300H300V280Z" fill="#D9D9D9"/>
<path d="M320 280H340V300H320V280Z" fill="#D9D9D9"/>
<path d="M259 280H279V300H259V280Z" fill="#D9D9D9"/>
<path d="M279 280H300V300H279V280Z" fill="#D9D9D9"/>
<path d="M198 280H219V300H198V280Z" fill="#D9D9D9"/>
<path d="M219 280H239V300H219V280Z" fill="#D9D9D9"/>
<path d="M239 280H259V300H239V280Z" fill="#D9D9D9"/>
<path d="M178 280H198V300H178V280Z" fill="#D9D9D9"/>
<path d="M138 280H158V300H138V280Z" fill="#D9D9D9"/>
<path d="M158 280H178V300H158V280Z" fill="#D9D9D9"/>
<path d="M118 360H138V380H118V360Z" fill="#D9D9D9"/>
<path d="M118 320H138V340H118V320Z" fill="#D9D9D9"/>
<path d="M379 319H399V339H379V319Z" fill="#D9D9D9"/>
<path d="M259 420H279V440H259V420Z" fill="#D9D9D9"/>
<path d="M219 420H239V440H219V420Z" fill="#D9D9D9"/>
<path d="M239 420H259V440H239V420Z" fill="#D9D9D9"/>
<path d="M359 420H379V440H359V420Z" fill="#D9D9D9"/>
<path d="M339 420H359V440H339V420Z" fill="#D9D9D9"/>
<path d="M279 420H299V440H279V420Z" fill="#D9D9D9"/>
<path d="M299 420H319V440H299V420Z" fill="#D9D9D9"/>
<path d="M319 420H339V440H319V420Z" fill="#D9D9D9"/>
<path d="M98 340H118M98 340V360M98 340V320M98 340H78M118 340V360M118 340H138M118 340V320M118 360H98M118 360H138M118 360V380M98 360H78M98 360V380M138 340V360M138 340H158M138 340V320M138 360H158M138 360V380M98 320H118M98 320H78M98 320V300M118 320V300M118 320H138M39 360H59M39 360V380H59M39 360V340H59M59 360V380M59 360V340M59 360H78M59 380H78M59 340H78M59 340V320M118 380H138M118 380V400M118 380H98M138 380V400M138 380H158M138 400H118M138 400H158M138 400V420M118 400V420H138M118 400H98M158 380V400M158 380H178M158 380V360M158 400V420M158 400H178M138 420H158M78 380H98M78 380V400H98M78 380V360M98 380V400M78 360V340M78 340V320M59 320H78M59 320V300H78M78 320V300M78 300H98M98 300H118M98 300V280H118M158 420H178M158 420V440H178M178 400H198M178 400V420M178 400V380M198 400V420M198 400H219M198 400V380M198 420H178M198 420H219M198 420V440M178 420V440M219 400V420M219 400H239M219 400V380M219 420H239M219 420V440M239 400V420M239 400H259M239 400V380M239 420H259M239 420V440M259 400V420M259 400H279M259 400V380M259 420H279M259 420V440M279 400V420M279 400H299M279 400V380M279 420H299M279 420V440M219 440H198M219 440H239M198 440H178M379 400H399M379 400V420M379 400H359M379 400V380M399 400V420H379M399 400H419V380M399 400V380M379 420H359M379 420V440H359M359 400V420M359 400V380M359 400H339M359 420H339M359 420V440M399 380H419M399 380V359M399 380H379M419 380V359M399 359H419M399 359V339M399 359H379M419 359V339H399M399 339H379M399 339V319H379M379 380V359M379 380H359M379 359V339M379 339V319M379 339H359M359 319H379M359 319V339M359 319H340M359 319V300M379 319V300H359M359 339H340V319M340 319V300M340 319H320V300M359 300H340M340 300H320M340 300V280H320M320 300V280M320 300H300M359 380H339M299 400H319M299 400V420M299 400V380M319 400V420M319 400H339M319 400V380M319 420H299M319 420H339M319 420V440M299 420V440M339 400V420M339 400V380M339 420V440M178 380H198M178 380V360M198 380H219M198 380V360M219 380H239M219 380V360M239 380H259M239 380V360M259 380H279M259 380V360M279 380H299M279 380V360M299 380H319M299 380V360M319 380H339M319 380V360M339 380V360H319M178 360H198M178 360H158M178 360V340M198 360H219M198 360V340M219 360H239M219 360V340M158 360V340M239 360H259M239 360V340M259 360H279M259 360V340M279 360H299M279 360V340M299 360H319M299 360V340M178 340H198M178 340H158M178 340V320M198 340H219M198 340V320M219 340H239M219 340V320M158 340V320M239 340H259M239 340V320M259 340H279M259 340V320M279 340H299M279 340V320M299 340V320H279M279 320V300M279 320H259M259 300H279M259 300V320M259 300H239M259 300V280M279 300V280M279 300H300M259 320H239M219 300H239M219 300V320M219 300H198M219 300V280M239 300V320M239 300V280M239 320H219M219 320H198M178 320H198M178 320H158M178 320V300M198 320V300M158 320H138M158 320V300M138 320V300M178 300H198M178 300H158M178 300V280M198 300V280M158 300H138M158 300V280M138 300H118M138 300V280M118 300V280M118 280H138M138 280H158M300 280H320M300 280V300M300 280H279M259 280H279M259 280H239M198 280H219M198 280H178M219 280H239M178 280H158M279 440H259M279 440H299M259 440H239M359 440H339M339 440H319M299 440H319" stroke="#D9D9D9" stroke-width="5"/>
</svg>
